src/images/v2/support.svg

<svg fill="none" height="27" viewBox="0 0 27 27" width="27" xmlns="http://www.w3.org/2000/svg"><g stroke="#12c3f4" stroke-linecap="round" stroke-linejoin="round" stroke-miterlimit="2" stroke-width="2.81818"><path d="m18.2247 18.2247h5.841c.7138 0 1.2979-.584 1.2979-1.2979v-13.62882c0-.71389-.5841-1.29798-1.2979-1.29798h-13.6288c-.71392 0-1.29801.58409-1.29801 1.29798v5.84091"/><path d="m9.13889 9.13889h-5.84091c-.71389 0-1.29798.58409-1.29798 1.29801v13.6288c0 .7138.58409 1.2979 1.29798 1.2979h13.62882c.7139 0 1.2979-.5841 1.2979-1.2979v-5.841"/><path d="m10.4369 9.13889h6.4899c.7139 0 1.2979.58409 1.2979 1.29801v6.4899c0 .7139-.584 1.2979-1.2979 1.2979h-6.4899c-.71392 0-1.29801-.584-1.29801-1.2979v-6.4899c0-.71392.57111-1.29801 1.29801-1.29801z" fill="#65f8c3"/></g></svg>

<svg width="27" height="27" viewBox="0 0 27 27" fill="none" xmlns="http://www.w3.org/2000/svg">
<path d="M18.2247 18.2247H24.0657C24.7795 18.2247 25.3636 17.6407 25.3636 16.9268V3.29798C25.3636 2.58409 24.7795 2 24.0657 2H10.4369C9.72298 2 9.13889 2.58409 9.13889 3.29798V9.13889" stroke="#12C3F4" stroke-width="2.81818" stroke-miterlimit="2" stroke-linecap="round" stroke-linejoin="round"/>
<path d="M9.13889 9.13889H3.29798C2.58409 9.13889 2 9.72298 2 10.4369V24.0657C2 24.7795 2.58409 25.3636 3.29798 25.3636H16.9268C17.6407 25.3636 18.2247 24.7795 18.2247 24.0657V18.2247" stroke="#12C3F4" stroke-width="2.81818" stroke-miterlimit="2" stroke-linecap="round" stroke-linejoin="round"/>
<path d="M10.4369 9.13889H16.9268C17.6407 9.13889 18.2247 9.72298 18.2247 10.4369V16.9268C18.2247 17.6407 17.6407 18.2247 16.9268 18.2247H10.4369C9.72298 18.2247 9.13889 17.6407 9.13889 16.9268V10.4369C9.13889 9.72298 9.71 9.13889 10.4369 9.13889Z" fill="#65F8C3" stroke="#12C3F4" stroke-width="2.81818" stroke-miterlimit="2" stroke-linecap="round" stroke-linejoin="round"/>
</svg>
